X: 15162
T: Gigue Des Touristes
R: jig
M: 6/8
K: Dmajor
|:f|afd d2 d|ecA A2 G|FGA Bcd|fed e2 f|
afd dcd|ecA AGE|FGA Bcd|edc d2:|
|:f|afd d2 b|baf d2 f|afd d2 d|ecA A2 f|
afd dbd|baf dfd|afd cec|d3- d2:|

